X: 1
T: Far From Home
R: reel
S: Fiddle Hell Online 2021-04-15 Rodney Miller jam
Z: 2021 John Chambers <jc:trillian.mit.edu>
M: C|
L: 1/8
K: G
|:\
"G"GEDE G3A | B2BA Bcd2 | GEDE G3B | "Am"AGAB AGE2 |
"G"GEDE G3A | B2BA Bcd2 | "C"edef gedc | "D"BGAF "G"G4 :|
|:\
"G"g3e "D"f3d | "Em"edef edB2 | "G"gedB G2GB | "Am"AGAB AGE2 |
"G"GEDE G3A | B2BA Bcd2 | "C"edef gedc | "D"BGAF "G"G4 :|
